Yaru++/emotes/16/face-ninja.svg

<svg height="16" width="16" xmlns="http://www.w3.org/2000/svg"><g stroke-width="1.142857"><path d="m8 0a8 8 0 1 0 0 16 8 8 0 0 0 0-16zm-2.2857143 4.5714286c.6377143 0 1.1782857.5405714 1.1782857 1.1782857v1.1074286c0 .6377142-.5405714 1.1428571-1.1782857 1.1428571s-1.1428571-.5051429-1.1428571-1.1428571v-1.1074286c0-.6377143.5051428-1.1782857 1.1428571-1.1782857zm4.5714283 0c.637715 0 1.142857.5405714 1.142857 1.1782857v1.1074286c0 .6377142-.505142 1.1428571-1.142857 1.1428571-.637714 0-1.142857-.5051429-1.142857-1.1428571v-1.1074286c0-.6377143.505143-1.1782857 1.142857-1.1782857zm-7.4285711 5.7142854h10.2857141a.57142857.57142857 0 1 1 0 1.142857h-10.2857141a.57142857.57142857 0 1 1 0-1.142857z" fill="#fdc92b"/><path d="m8 0a8 8 0 0 0 -7.9866071 8.3482143 8 8 0 0 1 7.9866071-7.77678573 8 8 0 0 1 7.986607 7.65178573 8 8 0 0 0 -7.986607-8.2232143zm-3.4285714 6.8571429v.5714285c0 .6377143.5051428 1.1428572 1.1428571 1.1428572s1.1785714-.5051429 1.1785714-1.1428572v-.5714285c0 .6377142-.5408571 1.1428571-1.1785714 1.1428571s-1.1428571-.5051429-1.1428571-1.1428571zm4.5714284 0v.5714285c0 .6377143.505143 1.1428572 1.142857 1.1428572.637715 0 1.142857-.5051429 1.142857-1.1428572v-.5714285c0 .6377142-.505142 1.1428571-1.142857 1.1428571-.637714 0-1.142857-.5051429-1.142857-1.1428571zm-6.7790177 4.2834821a.57142857.57142857 0 0 0 .4933036.859375h10.2857141a.57142857.57142857 0 0 0 .493304-.854911.57142857.57142857 0 0 1 -.493304.283482h-10.2857141a.57142857.57142857 0 0 1 -.4933036-.287946z" fill="#fff" opacity=".3"/><path d="m5.7142857 4c-.6377143 0-1.1428571.5408571-1.1428571 1.1785714v.5714286c0-.6377143.5051428-1.1785714 1.1428571-1.1785714s1.1785714.5408571 1.1785714 1.1785714v-.5714286c0-.6377143-.5408571-1.1785714-1.1785714-1.1785714zm4.5714283 0c-.637714 0-1.142857.5408571-1.142857 1.1785714v.5714286c0-.6377143.505143-1.1785714 1.142857-1.1785714.637715 0 1.142857.5408571 1.142857 1.1785714v-.5714286c0-.6377143-.505142-1.1785714-1.142857-1.1785714zm5.700893 3.6517857a8 8 0 0 1 -7.986607 7.7767853 8 8 0 0 1 -7.9866071-7.6517853 8 8 0 0 0 7.9866071 8.2232143 8 8 0 0 0 7.986607-8.3482143zm-13.1540177 2.0625a.57142857.57142857 0 0 0 -.46875.8549113.57142857.57142857 0 0 1 .4933036-.283483h10.2857141a.57142857.57142857 0 0 1 .493304.287947.57142857.57142857 0 0 0 -.493304-.8593753h-10.2857141a.57142857.57142857 0 0 0 -.024554 0z" opacity=".2"/></g><path d="m2.8574219 10.285156a.57142857.57142857 0 0 0 -.0253907.001953.57142857.57142857 0 0 0 -.0566406.003907.57142857.57142857 0 0 0 -.0546875.011718.57142857.57142857 0 0 0 -.0546875.015625.57142857.57142857 0 0 0 -.0527344.021485.57142857.57142857 0 0 0 -.0507812.027344.57142857.57142857 0 0 0 -.046875.033203.57142857.57142857 0 0 0 -.0449219.035156.57142857.57142857 0 0 0 -.0410156.041015.57142857.57142857 0 0 0 -.0351563.044922.57142857.57142857 0 0 0 -.03125.046875.57142857.57142857 0 0 0 -.0253906.050782.57142857.57142857 0 0 0 -.0214844.052734.57142857.57142857 0 0 0 -.015625.056641.57142857.57142857 0 0 0 -.0097656.054687.57142857.57142857 0 0 0 -.0058594.056641.57142857.57142857 0 0 0 .0019532.058594.57142857.57142857 0 0 0 .0058594.05664.57142857.57142857 0 0 0 .0136718.054688.57142857.57142857 0 0 0 .0175782.054687.57142857.57142857 0 0 0 .0234374.052735.57142857.57142857 0 0 0 .0292969.048828.57142857.57142857 0 0 0 .0332031.046875.57142857.57142857 0 0 0 .0371094.042968.57142857.57142857 0 0 0 .0410156.039063.57142857.57142857 0 0 0 .046875.033203.57142857.57142857 0 0 0 .0488282.03125.57142857.57142857 0 0 0 .0507812.023437.57142857.57142857 0 0 0 .0527344.019532.57142857.57142857 0 0 0 .0566406.015625.57142857.57142857 0 0 0 .0566406.007812.57142857.57142857 0 0 0 .0566407.001953h10.2851561a.57142857.57142857 0 0 0 .025391 0 .57142857.57142857 0 0 0 .05664-.005859.57142857.57142857 0 0 0 .054688-.009766.57142857.57142857 0 0 0 .054687-.017578.57142857.57142857 0 0 0 .052735-.021484.57142857.57142857 0 0 0 .050781-.027344.57142857.57142857 0 0 0 .046875-.03125.57142857.57142857 0 0 0 .044922-.037109.57142857.57142857 0 0 0 .041015-.039063.57142857.57142857 0 0 0 .035157-.044922.57142857.57142857 0 0 0 .03125-.048828.57142857.57142857 0 0 0 .02539-.050781.57142857.57142857 0 0 0 .021485-.052734.57142857.57142857 0 0 0 .015625-.054688.57142857.57142857 0 0 0 .009765-.05664.57142857.57142857 0 0 0 .00586-.056641.57142857.57142857 0 0 0 -.001953-.056641.57142857.57142857 0 0 0 -.00586-.05664.57142857.57142857 0 0 0 -.013672-.056641.57142857.57142857 0 0 0 -.017578-.052734.57142857.57142857 0 0 0 -.023437-.052735.57142857.57142857 0 0 0 -.029297-.048828.57142857.57142857 0 0 0 -.033203-.046875.57142857.57142857 0 0 0 -.03711-.042969.57142857.57142857 0 0 0 -.041015-.039062.57142857.57142857 0 0 0 -.046875-.035156.57142857.57142857 0 0 0 -.048828-.029297.57142857.57142857 0 0 0 -.050782-.025391.57142857.57142857 0 0 0 -.052734-.019531.57142857.57142857 0 0 0 -.056641-.013672.57142857.57142857 0 0 0 -.05664-.007813.57142857.57142857 0 0 0 -.056641-.003906z" opacity=".7"/><path d="m2.8574219 10.285156h10.2851561a.57142857.57142857 0 0 1 .056641.003906.57142857.57142857 0 0 1 .05664.007813.57142857.57142857 0 0 1 .056641.013672.57142857.57142857 0 0 1 .052734.019531.57142857.57142857 0 0 1 .050782.025391.57142857.57142857 0 0 1 .048828.029297.57142857.57142857 0 0 1 .046875.035156.57142857.57142857 0 0 1 .041015.039062.57142857.57142857 0 0 1 .03711.042969.57142857.57142857 0 0 1 .033203.046875.57142857.57142857 0 0 1 .029297.048828.57142857.57142857 0 0 1 .023437.052735.57142857.57142857 0 0 1 .017578.052734.57142857.57142857 0 0 1 .013672.056641.57142857.57142857 0 0 1 .00586.05664.57142857.57142857 0 0 1 .001953.056641.57142857.57142857 0 0 1 -.00586.056641.57142857.57142857 0 0 1 -.009765.05664.57142857.57142857 0 0 1 -.015625.054688.57142857.57142857 0 0 1 -.021485.052734.57142857.57142857 0 0 1 -.02539.050781.57142857.57142857 0 0 1 -.03125.048828.57142857.57142857 0 0 1 -.035157.044922.57142857.57142857 0 0 1 -.041015.039063.57142857.57142857 0 0 1 -.044922.037109.57142857.57142857 0 0 1 -.046875.03125.57142857.57142857 0 0 1 -.050781.027344.57142857.57142857 0 0 1 -.052735.021484.57142857.57142857 0 0 1 -.054687.017578.57142857.57142857 0 0 1 -.054688.009766.57142857.57142857 0 0 1 -.05664.005859.57142857.57142857 0 0 1 -.025391 0h-10.2851561a.57142857.57142857 0 0 1 -.0566407-.001953.57142857.57142857 0 0 1 -.0566406-.007812.57142857.57142857 0 0 1 -.0566406-.015625.57142857.57142857 0 0 1 -.0527344-.019532.57142857.57142857 0 0 1 -.0507812-.023437.57142857.57142857 0 0 1 -.0488282-.03125.57142857.57142857 0 0 1 -.046875-.033203.57142857.57142857 0 0 1 -.0410156-.039063.57142857.57142857 0 0 1 -.0371094-.042968.57142857.57142857 0 0 1 -.0332031-.046875.57142857.57142857 0 0 1 -.0292969-.048828.57142857.57142857 0 0 1 -.0234374-.052735.57142857.57142857 0 0 1 -.0175782-.054687.57142857.57142857 0 0 1 -.0136718-.054688.57142857.57142857 0 0 1 -.0058594-.05664.57142857.57142857 0 0 1 -.0019532-.058594.57142857.57142857 0 0 1 .0058594-.056641.57142857.57142857 0 0 1 .0097656-.054687.57142857.57142857 0 0 1 .015625-.056641.57142857.57142857 0 0 1 .0214844-.052734.57142857.57142857 0 0 1 .0253906-.050782.57142857.57142857 0 0 1 .03125-.046875.57142857.57142857 0 0 1 .0351563-.044922.57142857.57142857 0 0 1 .0410156-.041015.57142857.57142857 0 0 1 .0449219-.035156.57142857.57142857 0 0 1 .046875-.033203.57142857.57142857 0 0 1 .0507812-.027344.57142857.57142857 0 0 1 .0527344-.021485.57142857.57142857 0 0 1 .0546875-.015625.57142857.57142857 0 0 1 .0546875-.011718.57142857.57142857 0 0 1 .0566406-.003907.57142857.57142857 0 0 1 .0253907-.001953z" opacity=".7"/><path d="m.0390625 8.6777344a8 8 0 0 0 .02734375.3535156 8 8 0 0 0 .14257813.7871094 8 8 0 0 0 .22070312.7675786 8 8 0 0 0 .296875.74414 8 8 0 0 0 .3671875.708984 8 8 0 0 0 .4375.669922 8 8 0 0 0 .5039062.621094 8 8 0 0 0 .5605469.56836 8 8 0 0 0 .6171875.509765 8 8 0 0 0 .6640625.447266 8 8 0 0 0 .703125.376953 8 8 0 0 0 .7402344.304687 8 8 0 0 0 .765625.230469 8 8 0 0 0 .7851563.152344 8 8 0 0 0 .796875.072266 8 8 0 0 0 .3320312.007812 8 8 0 0 0 .7988281-.039062 8 8 0 0 0 .7910157-.121094 8 8 0 0 0 .7734372-.197266 8 8 0 0 0 .751953-.273437 8 8 0 0 0 .720704-.347657 8 8 0 0 0 .68164-.417968 8 8 0 0 0 .636719-.484375 8 8 0 0 0 .583984-.544922 8 8 0 0 0 .529297-.601563 8 8 0 0 0 .464844-.65039 8 8 0 0 0 .396484-.69336 8 8 0 0 0 .328125-.730468 8 8 0 0 0 .251953-.757813 8 8 0 0 0 .173828-.78125 8 8 0 0 0 .083985-.6816406z" opacity=".8"/><path d="m14.84375 3.8652344a8 8 0 0 0 -.375-.5742188 8 8 0 0 0 -.503906-.6210937 8 8 0 0 0 -.560547-.5683594 8 8 0 0 0 -.617188-.5097656 8 8 0 0 0 -.664062-.4472657 8 8 0 0 0 -.703125-.37695308 8 8 0 0 0 -.740234-.3046875 8 8 0 0 0 -.7656255-.23046874 8 8 0 0 0 -.7851563-.15234375 8 8 0 0 0 -.796875-.07226563 8 8 0 0 0 -.3320312-.0078125 8 8 0 0 0 -.7988281.0390625 8 8 0 0 0 -.7910157.12109375 8 8 0 0 0 -.7734374.19726563 8 8 0 0 0 -.7519532.2734375 8 8 0 0 0 -.7207031.34765624 8 8 0 0 0 -.6816406.41796878 8 8 0 0 0 -.6367188.484375 8 8 0 0 0 -.5839843.5449218 8 8 0 0 0 -.5292969.6015626 8 8 0 0 0 -.4648438.6503906 8 8 0 0 0 -.1074219.1875z" opacity=".8"/></svg>

<?xml version="1.0" encoding="UTF-8" standalone="no"?>
<svg
   xmlns:dc="http://purl.org/dc/elements/1.1/"
   xmlns:cc="http://creativecommons.org/ns#"
   xmlns:rdf="http://www.w3.org/1999/02/22-rdf-syntax-ns#"
   xmlns:svg="http://www.w3.org/2000/svg"
   xmlns="http://www.w3.org/2000/svg"
   xmlns:sodipodi="http://sodipodi.sourceforge.net/DTD/sodipodi-0.dtd"
   xmlns:inkscape="http://www.inkscape.org/namespaces/inkscape"
   width="16"
   height="16"
   version="1.1"
   id="svg4"
   sodipodi:docname="face-ninja.svg"
   inkscape:version="0.92.4 (5da689c313, 2019-01-14)">
  <metadata
     id="metadata10">
    <rdf:RDF>
      <cc:Work
         rdf:about="">
        <dc:format>image/svg+xml</dc:format>
        <dc:type
           rdf:resource="http://purl.org/dc/dcmitype/StillImage" />
        <dc:title></dc:title>
      </cc:Work>
    </rdf:RDF>
  </metadata>
  <defs
     id="defs8" />
  <sodipodi:namedview
     pagecolor="#ffffff"
     bordercolor="#666666"
     borderopacity="1"
     objecttolerance="10"
     gridtolerance="10"
     guidetolerance="10"
     inkscape:pageopacity="0"
     inkscape:pageshadow="2"
     inkscape:window-width="1920"
     inkscape:window-height="1016"
     id="namedview6"
     showgrid="false"
     showguides="false"
     inkscape:zoom="14.75"
     inkscape:cx="-17.762712"
     inkscape:cy="8"
     inkscape:window-x="0"
     inkscape:window-y="27"
     inkscape:window-maximized="1"
     inkscape:current-layer="svg4" />
  <path
     d="M 8,0 A 8,8 0 1 0 8,16 8,8 0 0 0 8,0 Z M 5.7142857,4.5714286 C 6.352,4.5714286 6.8925714,5.112 6.8925714,5.7497143 V 6.8571429 C 6.8925714,7.4948571 6.352,8 5.7142857,8 5.0765714,8 4.5714286,7.4948571 4.5714286,6.8571429 V 5.7497143 c 0,-0.6377143 0.5051428,-1.1782857 1.1428571,-1.1782857 z m 4.5714283,0 c 0.637715,0 1.142857,0.5405714 1.142857,1.1782857 V 6.8571429 C 11.428571,7.4948571 10.923429,8 10.285714,8 9.648,8 9.142857,7.4948571 9.142857,6.8571429 V 5.7497143 C 9.142857,5.112 9.648,4.5714286 10.285714,4.5714286 Z M 2.8571429,10.285714 H 13.142857 a 0.57142857,0.57142857 0 1 1 0,1.142857 H 2.8571429 a 0.57142857,0.57142857 0 1 1 0,-1.142857 z"
     id="path2"
     style="fill:#fdc92b;fill-opacity:1;stroke-width:1.14285719"
     inkscape:connector-curvature="0" />
  <path
     style="opacity:0.3;fill:#ffffff;fill-opacity:1;stroke-width:1.14285719"
     d="M 8,0 A 8,8 0 0 0 0.0133929,8.3482143 8,8 0 0 1 8,0.57142857 8,8 0 0 1 15.986607,8.2232143 8,8 0 0 0 8,0 Z M 4.5714286,6.8571429 v 0.5714285 c 0,0.6377143 0.5051428,1.1428572 1.1428571,1.1428572 0.6377143,0 1.1785714,-0.5051429 1.1785714,-1.1428572 V 6.8571429 C 6.8928571,7.4948571 6.352,8 5.7142857,8 5.0765714,8 4.5714286,7.4948571 4.5714286,6.8571429 Z m 4.5714284,0 v 0.5714285 c 0,0.6377143 0.505143,1.1428572 1.142857,1.1428572 0.637715,0 1.142857,-0.5051429 1.142857,-1.1428572 V 6.8571429 C 11.428571,7.4948571 10.923429,8 10.285714,8 9.648,8 9.142857,7.4948571 9.142857,6.8571429 Z M 2.3638393,11.140625 A 0.57142857,0.57142857 0 0 0 2.8571429,12 H 13.142857 a 0.57142857,0.57142857 0 0 0 0.493304,-0.854911 0.57142857,0.57142857 0 0 1 -0.493304,0.283482 H 2.8571429 A 0.57142857,0.57142857 0 0 1 2.3638393,11.140625 Z"
     id="path839"
     inkscape:connector-curvature="0" />
  <path
     style="opacity:0.2;fill:#000000;fill-opacity:1;stroke-width:1.14285719"
     d="M 5.7142857,4 C 5.0765714,4 4.5714286,4.5408571 4.5714286,5.1785714 V 5.75 c 0,-0.6377143 0.5051428,-1.1785714 1.1428571,-1.1785714 0.6377143,0 1.1785714,0.5408571 1.1785714,1.1785714 V 5.1785714 C 6.8928571,4.5408571 6.352,4 5.7142857,4 Z M 10.285714,4 C 9.648,4 9.142857,4.5408571 9.142857,5.1785714 V 5.75 c 0,-0.6377143 0.505143,-1.1785714 1.142857,-1.1785714 0.637715,0 1.142857,0.5408571 1.142857,1.1785714 V 5.1785714 C 11.428571,4.5408571 10.923429,4 10.285714,4 Z m 5.700893,3.6517857 A 8,8 0 0 1 8,15.428571 8,8 0 0 1 0.0133929,7.7767857 8,8 0 0 0 8,16 8,8 0 0 0 15.986607,7.6517857 Z m -13.1540177,2.0625 a 0.57142857,0.57142857 0 0 0 -0.46875,0.8549113 0.57142857,0.57142857 0 0 1 0.4933036,-0.283483 H 13.142857 a 0.57142857,0.57142857 0 0 1 0.493304,0.287947 0.57142857,0.57142857 0 0 0 -0.493304,-0.8593753 H 2.8571429 a 0.57142857,0.57142857 0 0 0 -0.024554,0 z"
     id="path865"
     inkscape:connector-curvature="0" />
  <path
     style="opacity:0.7;fill:#000000;fill-opacity:1;stroke:none;stroke-width:1.5;stroke-miterlimit:4;stroke-dasharray:none;stroke-opacity:1"
     d="M 2.8574219 10.285156 A 0.57142857 0.57142857 0 0 0 2.8320312 10.287109 A 0.57142857 0.57142857 0 0 0 2.7753906 10.291016 A 0.57142857 0.57142857 0 0 0 2.7207031 10.302734 A 0.57142857 0.57142857 0 0 0 2.6660156 10.318359 A 0.57142857 0.57142857 0 0 0 2.6132812 10.339844 A 0.57142857 0.57142857 0 0 0 2.5625 10.367188 A 0.57142857 0.57142857 0 0 0 2.515625 10.400391 A 0.57142857 0.57142857 0 0 0 2.4707031 10.435547 A 0.57142857 0.57142857 0 0 0 2.4296875 10.476562 A 0.57142857 0.57142857 0 0 0 2.3945312 10.521484 A 0.57142857 0.57142857 0 0 0 2.3632812 10.568359 A 0.57142857 0.57142857 0 0 0 2.3378906 10.619141 A 0.57142857 0.57142857 0 0 0 2.3164062 10.671875 A 0.57142857 0.57142857 0 0 0 2.3007812 10.728516 A 0.57142857 0.57142857 0 0 0 2.2910156 10.783203 A 0.57142857 0.57142857 0 0 0 2.2851562 10.839844 A 0.57142857 0.57142857 0 0 0 2.2871094 10.898438 A 0.57142857 0.57142857 0 0 0 2.2929688 10.955078 A 0.57142857 0.57142857 0 0 0 2.3066406 11.009766 A 0.57142857 0.57142857 0 0 0 2.3242188 11.064453 A 0.57142857 0.57142857 0 0 0 2.3476562 11.117188 A 0.57142857 0.57142857 0 0 0 2.3769531 11.166016 A 0.57142857 0.57142857 0 0 0 2.4101562 11.212891 A 0.57142857 0.57142857 0 0 0 2.4472656 11.255859 A 0.57142857 0.57142857 0 0 0 2.4882812 11.294922 A 0.57142857 0.57142857 0 0 0 2.5351562 11.328125 A 0.57142857 0.57142857 0 0 0 2.5839844 11.359375 A 0.57142857 0.57142857 0 0 0 2.6347656 11.382812 A 0.57142857 0.57142857 0 0 0 2.6875 11.402344 A 0.57142857 0.57142857 0 0 0 2.7441406 11.417969 A 0.57142857 0.57142857 0 0 0 2.8007812 11.425781 A 0.57142857 0.57142857 0 0 0 2.8574219 11.427734 L 13.142578 11.427734 A 0.57142857 0.57142857 0 0 0 13.167969 11.427734 A 0.57142857 0.57142857 0 0 0 13.224609 11.421875 A 0.57142857 0.57142857 0 0 0 13.279297 11.412109 A 0.57142857 0.57142857 0 0 0 13.333984 11.394531 A 0.57142857 0.57142857 0 0 0 13.386719 11.373047 A 0.57142857 0.57142857 0 0 0 13.4375 11.345703 A 0.57142857 0.57142857 0 0 0 13.484375 11.314453 A 0.57142857 0.57142857 0 0 0 13.529297 11.277344 A 0.57142857 0.57142857 0 0 0 13.570312 11.238281 A 0.57142857 0.57142857 0 0 0 13.605469 11.193359 A 0.57142857 0.57142857 0 0 0 13.636719 11.144531 A 0.57142857 0.57142857 0 0 0 13.662109 11.09375 A 0.57142857 0.57142857 0 0 0 13.683594 11.041016 A 0.57142857 0.57142857 0 0 0 13.699219 10.986328 A 0.57142857 0.57142857 0 0 0 13.708984 10.929688 A 0.57142857 0.57142857 0 0 0 13.714844 10.873047 A 0.57142857 0.57142857 0 0 0 13.712891 10.816406 A 0.57142857 0.57142857 0 0 0 13.707031 10.759766 A 0.57142857 0.57142857 0 0 0 13.693359 10.703125 A 0.57142857 0.57142857 0 0 0 13.675781 10.650391 A 0.57142857 0.57142857 0 0 0 13.652344 10.597656 A 0.57142857 0.57142857 0 0 0 13.623047 10.548828 A 0.57142857 0.57142857 0 0 0 13.589844 10.501953 A 0.57142857 0.57142857 0 0 0 13.552734 10.458984 A 0.57142857 0.57142857 0 0 0 13.511719 10.419922 A 0.57142857 0.57142857 0 0 0 13.464844 10.384766 A 0.57142857 0.57142857 0 0 0 13.416016 10.355469 A 0.57142857 0.57142857 0 0 0 13.365234 10.330078 A 0.57142857 0.57142857 0 0 0 13.3125 10.310547 A 0.57142857 0.57142857 0 0 0 13.255859 10.296875 A 0.57142857 0.57142857 0 0 0 13.199219 10.289062 A 0.57142857 0.57142857 0 0 0 13.142578 10.285156 L 2.8574219 10.285156 z "
     id="path830" />
  <path
     style="opacity:0.7;fill:#000000;fill-opacity:1;stroke:none;stroke-width:1.5;stroke-miterlimit:4;stroke-dasharray:none;stroke-opacity:1"
     d="M 2.8574219 10.285156 L 13.142578 10.285156 A 0.57142857 0.57142857 0 0 1 13.199219 10.289062 A 0.57142857 0.57142857 0 0 1 13.255859 10.296875 A 0.57142857 0.57142857 0 0 1 13.3125 10.310547 A 0.57142857 0.57142857 0 0 1 13.365234 10.330078 A 0.57142857 0.57142857 0 0 1 13.416016 10.355469 A 0.57142857 0.57142857 0 0 1 13.464844 10.384766 A 0.57142857 0.57142857 0 0 1 13.511719 10.419922 A 0.57142857 0.57142857 0 0 1 13.552734 10.458984 A 0.57142857 0.57142857 0 0 1 13.589844 10.501953 A 0.57142857 0.57142857 0 0 1 13.623047 10.548828 A 0.57142857 0.57142857 0 0 1 13.652344 10.597656 A 0.57142857 0.57142857 0 0 1 13.675781 10.650391 A 0.57142857 0.57142857 0 0 1 13.693359 10.703125 A 0.57142857 0.57142857 0 0 1 13.707031 10.759766 A 0.57142857 0.57142857 0 0 1 13.712891 10.816406 A 0.57142857 0.57142857 0 0 1 13.714844 10.873047 A 0.57142857 0.57142857 0 0 1 13.708984 10.929688 A 0.57142857 0.57142857 0 0 1 13.699219 10.986328 A 0.57142857 0.57142857 0 0 1 13.683594 11.041016 A 0.57142857 0.57142857 0 0 1 13.662109 11.09375 A 0.57142857 0.57142857 0 0 1 13.636719 11.144531 A 0.57142857 0.57142857 0 0 1 13.605469 11.193359 A 0.57142857 0.57142857 0 0 1 13.570312 11.238281 A 0.57142857 0.57142857 0 0 1 13.529297 11.277344 A 0.57142857 0.57142857 0 0 1 13.484375 11.314453 A 0.57142857 0.57142857 0 0 1 13.4375 11.345703 A 0.57142857 0.57142857 0 0 1 13.386719 11.373047 A 0.57142857 0.57142857 0 0 1 13.333984 11.394531 A 0.57142857 0.57142857 0 0 1 13.279297 11.412109 A 0.57142857 0.57142857 0 0 1 13.224609 11.421875 A 0.57142857 0.57142857 0 0 1 13.167969 11.427734 A 0.57142857 0.57142857 0 0 1 13.142578 11.427734 L 2.8574219 11.427734 A 0.57142857 0.57142857 0 0 1 2.8007812 11.425781 A 0.57142857 0.57142857 0 0 1 2.7441406 11.417969 A 0.57142857 0.57142857 0 0 1 2.6875 11.402344 A 0.57142857 0.57142857 0 0 1 2.6347656 11.382812 A 0.57142857 0.57142857 0 0 1 2.5839844 11.359375 A 0.57142857 0.57142857 0 0 1 2.5351562 11.328125 A 0.57142857 0.57142857 0 0 1 2.4882812 11.294922 A 0.57142857 0.57142857 0 0 1 2.4472656 11.255859 A 0.57142857 0.57142857 0 0 1 2.4101562 11.212891 A 0.57142857 0.57142857 0 0 1 2.3769531 11.166016 A 0.57142857 0.57142857 0 0 1 2.3476562 11.117188 A 0.57142857 0.57142857 0 0 1 2.3242188 11.064453 A 0.57142857 0.57142857 0 0 1 2.3066406 11.009766 A 0.57142857 0.57142857 0 0 1 2.2929688 10.955078 A 0.57142857 0.57142857 0 0 1 2.2871094 10.898438 A 0.57142857 0.57142857 0 0 1 2.2851562 10.839844 A 0.57142857 0.57142857 0 0 1 2.2910156 10.783203 A 0.57142857 0.57142857 0 0 1 2.3007812 10.728516 A 0.57142857 0.57142857 0 0 1 2.3164062 10.671875 A 0.57142857 0.57142857 0 0 1 2.3378906 10.619141 A 0.57142857 0.57142857 0 0 1 2.3632812 10.568359 A 0.57142857 0.57142857 0 0 1 2.3945312 10.521484 A 0.57142857 0.57142857 0 0 1 2.4296875 10.476562 A 0.57142857 0.57142857 0 0 1 2.4707031 10.435547 A 0.57142857 0.57142857 0 0 1 2.515625 10.400391 A 0.57142857 0.57142857 0 0 1 2.5625 10.367188 A 0.57142857 0.57142857 0 0 1 2.6132812 10.339844 A 0.57142857 0.57142857 0 0 1 2.6660156 10.318359 A 0.57142857 0.57142857 0 0 1 2.7207031 10.302734 A 0.57142857 0.57142857 0 0 1 2.7753906 10.291016 A 0.57142857 0.57142857 0 0 1 2.8320312 10.287109 A 0.57142857 0.57142857 0 0 1 2.8574219 10.285156 z "
     id="path828" />
  <path
     style="opacity:0.8;fill:#000000;fill-opacity:1;stroke:none;stroke-width:1.5;stroke-miterlimit:4;stroke-dasharray:none;stroke-opacity:1"
     d="M 0.0390625 8.6777344 A 8 8 0 0 0 0.06640625 9.03125 A 8 8 0 0 0 0.20898438 9.8183594 A 8 8 0 0 0 0.4296875 10.585938 A 8 8 0 0 0 0.7265625 11.330078 A 8 8 0 0 0 1.09375 12.039062 A 8 8 0 0 0 1.53125 12.708984 A 8 8 0 0 0 2.0351562 13.330078 A 8 8 0 0 0 2.5957031 13.898438 A 8 8 0 0 0 3.2128906 14.408203 A 8 8 0 0 0 3.8769531 14.855469 A 8 8 0 0 0 4.5800781 15.232422 A 8 8 0 0 0 5.3203125 15.537109 A 8 8 0 0 0 6.0859375 15.767578 A 8 8 0 0 0 6.8710938 15.919922 A 8 8 0 0 0 7.6679688 15.992188 A 8 8 0 0 0 8 16 A 8 8 0 0 0 8.7988281 15.960938 A 8 8 0 0 0 9.5898438 15.839844 A 8 8 0 0 0 10.363281 15.642578 A 8 8 0 0 0 11.115234 15.369141 A 8 8 0 0 0 11.835938 15.021484 A 8 8 0 0 0 12.517578 14.603516 A 8 8 0 0 0 13.154297 14.119141 A 8 8 0 0 0 13.738281 13.574219 A 8 8 0 0 0 14.267578 12.972656 A 8 8 0 0 0 14.732422 12.322266 A 8 8 0 0 0 15.128906 11.628906 A 8 8 0 0 0 15.457031 10.898438 A 8 8 0 0 0 15.708984 10.140625 A 8 8 0 0 0 15.882812 9.359375 A 8 8 0 0 0 15.966797 8.6777344 L 0.0390625 8.6777344 z "
     id="path824" />
  <path
     style="opacity:0.8;fill:#000000;fill-opacity:1;stroke:none;stroke-width:1.5;stroke-miterlimit:4;stroke-dasharray:none;stroke-opacity:1"
     d="M 14.84375 3.8652344 A 8 8 0 0 0 14.46875 3.2910156 A 8 8 0 0 0 13.964844 2.6699219 A 8 8 0 0 0 13.404297 2.1015625 A 8 8 0 0 0 12.787109 1.5917969 A 8 8 0 0 0 12.123047 1.1445312 A 8 8 0 0 0 11.419922 0.76757812 A 8 8 0 0 0 10.679688 0.46289062 A 8 8 0 0 0 9.9140625 0.23242188 A 8 8 0 0 0 9.1289062 0.080078125 A 8 8 0 0 0 8.3320312 0.0078125 A 8 8 0 0 0 8 0 A 8 8 0 0 0 7.2011719 0.0390625 A 8 8 0 0 0 6.4101562 0.16015625 A 8 8 0 0 0 5.6367188 0.35742188 A 8 8 0 0 0 4.8847656 0.63085938 A 8 8 0 0 0 4.1640625 0.97851562 A 8 8 0 0 0 3.4824219 1.3964844 A 8 8 0 0 0 2.8457031 1.8808594 A 8 8 0 0 0 2.2617188 2.4257812 A 8 8 0 0 0 1.7324219 3.0273438 A 8 8 0 0 0 1.2675781 3.6777344 A 8 8 0 0 0 1.1601562 3.8652344 L 14.84375 3.8652344 z "
     id="path822" />
</svg>
